X: 40901
T: Trim The Velvet
R: jig
M: 6/8
K: Dmixolydian
|:B2G AGE|AcA AGE|B2G AGE|GAG GED|
B2G AGE|AcA ABd|ede fdB|GAG GED:|
|:~D3 ~D3|AcA AGE|~D3 ~D3|GAG GED|
~D3 ~D3|AcA ABd|ede fdB|GAG GED:|

